static/images/ssg-logotype-white.svg

<svg height="40" viewBox="0 0 235 40" width="235" xmlns="http://www.w3.org/2000/svg"><g fill="#fff"><path d="m41.4436554 4.44221402c.9313182 0 1.6298068-.70140222 1.6298068-1.63660517 0-.93520294-.6984886-1.63660516-1.6298068-1.63660516-.9313178 0-1.6298064.70140222-1.6298064 1.63660516 0 .93520295.6984886 1.63660517 1.6298064 1.63660517zm21.6531461-4.44221402v12.1576384h-.116415c-2.0954657-3.03940961-4.7730053-4.32531366-7.7997888-4.32531366-6.984886 0-11.0594027 5.02671586-11.0594027 11.92383766 0 6.7802214 4.3073464 11.9238376 11.0594027 11.9238376 6.9848856 0 11.0594023-5.0267159 11.0594023-11.9238376v-19.63926203zm-7.9162038 28.4067897c-5.0058349 0-7.9162042-3.6239115-7.9162042-8.6506273 0-5.0267159 2.6775396-8.6506273 7.9162042-8.6506273 4.307346 0 7.9162038 3.6239114 7.9162038 8.6506273 0 5.0267158-2.7939543 8.6506273-7.9162038 8.6506273zm-15.3667487 3.1563099h3.1431985v-23.73077486h-3.1431985zm-4.3073464 0h3.1431986v-31.5630996h-3.1431986zm-12.1071353-23.73077486c-6.7520562 0-11.0594025 5.02671586-11.0594025 11.92383766v.2338007c-1.1641476-.7014022-2.56112474-1.1690037-4.07451665-1.7535055-3.60885765-1.1690037-4.77300527-2.1042067-4.77300527-4.091513 0-2.6887084 2.44471002-3.8577121 4.77300527-3.8577121 1.62980669 0 3.25961335.5845018 4.07451665 2.1042066l2.2118805-1.8704059c-1.6298067-1.98730628-3.7252724-2.68870846-6.28639715-2.68870846-3.95810193 0-7.68337434 2.22110696-7.68337434 6.54642066 0 3.7408118 2.44471002 5.1436162 5.58790863 6.1957195 3.95810196 1.2859041 5.82073816 1.870406 5.82073816 4.5591145 0 2.5718081-2.56112482 3.9746125-4.88942007 3.9746125-1.97905097 0-3.84168717-.8183026-4.77300527-2.5718081l-2.32829526 1.8704059c1.62980668 2.3380073 4.423761 3.1563099 6.98488578 3.1563099 3.25961332 0 6.40281192-1.4028044 7.45054482-4.2084132 1.979051 2.5718081 5.0058348 4.2084132 8.9639367 4.2084132 6.9848858 0 11.0594025-5.0267158 11.0594025-11.9238376 0-6.7802214-4.3073463-11.80693726-11.0594025-11.80693726zm0 20.57446496c-5.2386643 0-7.9162039-3.6239115-7.9162039-8.6506273 0-5.0267159 2.9103691-8.6506273 7.9162039-8.6506273s7.9162039 3.6239114 7.9162039 8.6506273c0 5.0267158-2.6775396 8.6506273-7.9162039 8.6506273z"/><path d="m144 18.9007171c0-6.1572908-3.958304-11.15282864-10.827127-11.26900395-2.910518 0-5.471774 1.0455777-7.450926 2.78820715v-1.85880476h-6.40314v-6.04111554h-3.14336v6.04111554h-5.006091v1.85880476c-1.862731-1.74262945-4.423987-2.78820715-7.567347-2.78820715-3.026938 0-5.5881941 1.0455777-7.4509259 2.78820715v-1.85880476h-6.4031396v-6.04111554h-3.376201v6.04111554h-4.4239874c-1.1642073-.58087649-2.4448353-.6970518-3.8418837-.6970518-3.9583047 0-7.683768 2.20733066-7.683768 6.50581676 0 3.7176095 2.4448353 5.1117131 5.5881947 6.1572908 3.9583048 1.2779283 5.8210362 1.8588048 5.8210362 4.5308367 0 2.5558565-2.561256 3.9499601-4.8896701 3.9499601-1.9791526 0-3.841884-.8132271-4.7732497-2.5558566l-2.3284145 1.8588048c1.5134695 2.2073307 4.3075667 3.1367331 6.8688227 3.1367331 4.0747251 0 7.9166091-2.0911554 7.9166091-6.5058167 0-4.4146614-3.2597802-5.5764144-6.7524019-6.6219921-3.6090425-1.1617529-4.7732497-2.0911553-4.7732497-4.0661354 0-2.6720319 2.4448352-3.7176096 4.7732497-3.7176096 1.6298899 0 3.2597802.5808765 4.0747252 2.0911554l1.0477865-.9294024h3.3762009v13.7086853c0 4.4146613 2.6776768 6.2734661 6.8688227 6.2734661 1.8627314 0 3.4926217-.3485259 5.1225116-1.0455777 1.3970488.6970518 3.1433592 1.0455777 5.0060912 1.0455777 3.026939 0 5.704616-1.2779283 7.800188-4.298486h.116421v3.9499601h3.14336v-11.8498805c0-3.2529083-.931366-6.0411155-2.561256-8.1322709h4.191146v13.7086853c0 4.4146613 2.677676 6.2734661 6.868822 6.2734661 1.862732 0 3.609043-.3485259 5.238933-1.161753 1.513469.6970518 3.25978 1.161753 5.238932 1.161753 3.725463 0 6.985244-1.3941036 9.66292-4.7631873l-2.444835-1.97498c-1.280628 1.97498-3.841884 3.8337848-7.218085 3.8337848-4.423987 0-7.916609-3.6014342-8.265871-8.0160956h18.743736zm-53.4371116 8.4807969c-.6985242-.6970518-1.0477864-1.7426295-1.0477864-3.1367331v-12.8954582h5.5881946c-1.7463106 2.0911554-2.6776764 4.8793626-2.6776764 8.1322709 0 3.485259 1.0477865 6.5058168 3.1433595 8.7131474-.6985246.2323506-1.3970488.2323506-2.2119937.2323506-1.0477865 0-2.095573-.3485259-2.7940976-1.0455776zm12.9227006.813227c-5.2389329 0-7.9166093-3.6014342-7.9166093-8.5969721 0-4.9955378 2.9105179-8.5969721 7.9166093-8.5969721 5.238932 0 7.916609 3.6014343 7.916609 8.5969721 0 4.9955379-3.725463 8.5969721-7.916609 8.5969721zm21.887096 0c-.698525.2323506-1.51347.3485259-2.328415.3485259-1.047786 0-1.979152-.3485259-2.677677-1.1617529-.698524-.6970518-1.047786-1.7426295-1.047786-3.1367331v-12.8954582h5.588194c-1.862731 2.0911554-2.910517 4.8793626-2.910517 8.1322709-.116421 3.485259 1.164207 6.5058168 3.376201 8.7131474zm-.116421-10.3396015c0-3.7176096 3.725463-7.2028686 7.916609-7.2028686 4.540408 0 7.334505 2.9043825 7.334505 7.2028686z"/><path d="m223.511351 7.92c-3.385946 0-6.071351 1.16934307-7.939459 3.040292v-3.040292h-3.152433v13.0966423c0 5.0281752-1.868108 7.8345986-6.655135 7.8345986s-6.655135-2.8064234-6.655135-7.8345986v-13.0966423h-3.152432v6.4313869c-1.751352-3.8588322-5.254054-6.4313869-10.041081-6.4313869-2.451892 0-4.670271.70160584-6.421622 1.98788321l.35027-1.63708027c-.70054-.23386864-1.401081-.23386864-2.335135-.23386864-2.918919 0-6.888648.81854014-8.99027 4.6773723-1.868108-2.92335769-5.020541-4.6773723-9.107027-4.6773723-6.771892 0-11.091892 5.0281752-11.091892 11.9272993 0 6.7821897 4.086486 11.9272992 11.091892 11.9272992 3.035675 0 5.721081-1.2862773 7.822703-4.3265693h.116756v.2338686c0 5.729781-3.969729 9.2378102-8.523243 9.2378102-3.385946 0-5.954594-1.8709489-7.238919-3.8588321l-2.451892 1.9878832c2.685406 3.391095 5.954595 4.7943066 9.690811 4.7943066 6.421622 0 11.558919-4.2096351 11.675676-12.0442336v-9.3547445c0-3.6249635 1.517838-7.249927 6.888649-7.249927h.70054c-1.984865 2.1048175-3.152432 5.1451095-3.152432 8.6531387 0 6.7821897 4.086486 11.9272992 11.091892 11.9272992 5.137297 0 8.64-2.689489 10.157837-6.6652554.817297 4.3265693 3.96973 6.6652554 9.690811 6.6652554 2.802162 0 5.020541-.5846715 6.655135-1.7540145v9.7055472h3.152433v-12.5119706h.116756c2.101622 3.040292 4.787028 4.3265693 7.822703 4.3265693 7.005406 0 11.091892-5.0281752 11.091892-11.9272993-.116757-6.7821897-4.436757-11.8103649-11.208649-11.8103649zm-64.216216 20.580438c-5.254054 0-7.939459-3.6249636-7.939459-8.6531387 0-5.0281752 2.918919-8.6531387 7.939459-8.6531387 5.254054 0 7.93946 3.6249635 7.93946 8.6531387 0 5.0281751-3.61946 8.6531387-7.93946 8.6531387zm26.620541 0c-5.254054 0-7.93946-3.6249636-7.93946-8.6531387 0-5.0281752 2.918919-8.6531387 7.93946-8.6531387 5.02054 0 7.939459 3.6249635 7.939459 8.6531387 0 5.0281751-2.685405 8.6531387-7.939459 8.6531387zm37.595675 0c-4.32 0-7.939459-3.6249636-7.939459-8.6531387 0-5.0281752 2.685405-8.6531387 7.939459-8.6531387 5.020541 0 7.93946 3.6249635 7.93946 8.6531387 0 5.0281751-2.685406 8.6531387-7.93946 8.6531387z"/></g></svg>

<?xml version="1.0" encoding="UTF-8"?>
<svg width="235px" height="40px" viewBox="0 0 235 40" version="1.1" xmlns="http://www.w3.org/2000/svg" xmlns:xlink="http://www.w3.org/1999/xlink">
    <!-- Generator: Sketch 62 (91390) - https://sketch.com -->
    <title>ssg-logotype-white</title>
    <desc>Created with Sketch.</desc>
    <g id="UI-Design-(Teal)" stroke="none" stroke-width="1" fill="none" fill-rule="evenodd">
        <g id="Services-Teal-v1" transform="translate(-25.000000, -28.000000)" fill="#FFFFFF" fill-rule="nonzero">
            <g id="Navigation-/-Navbar" transform="translate(25.000000, 28.000000)">
                <g id="ssg-logotype-white">
                    <path d="M41.4436554,4.44221402 C42.3749736,4.44221402 43.0734622,3.7408118 43.0734622,2.80560885 C43.0734622,1.87040591 42.3749736,1.16900369 41.4436554,1.16900369 C40.5123376,1.16900369 39.813849,1.87040591 39.813849,2.80560885 C39.813849,3.7408118 40.5123376,4.44221402 41.4436554,4.44221402 L41.4436554,4.44221402 Z M63.0968015,0 L63.0968015,12.1576384 L62.9803865,12.1576384 C60.8849208,9.11822879 58.2073812,7.83232474 55.1805977,7.83232474 C48.1957117,7.83232474 44.121195,12.8590406 44.121195,19.7561624 C44.121195,26.5363838 48.4285414,31.68 55.1805977,31.68 C62.1654833,31.68 66.24,26.6532841 66.24,19.7561624 L66.24,0.116900369 L63.0968015,0 L63.0968015,0 Z M55.1805977,28.4067897 C50.1747628,28.4067897 47.2643935,24.7828782 47.2643935,19.7561624 C47.2643935,14.7294465 49.9419331,11.1055351 55.1805977,11.1055351 C59.4879437,11.1055351 63.0968015,14.7294465 63.0968015,19.7561624 C63.0968015,24.7828782 60.3028472,28.4067897 55.1805977,28.4067897 L55.1805977,28.4067897 Z M39.813849,31.5630996 L42.9570475,31.5630996 L42.9570475,7.83232474 L39.813849,7.83232474 L39.813849,31.5630996 L39.813849,31.5630996 Z M35.5065026,31.5630996 L38.6497012,31.5630996 L38.6497012,0 L35.5065026,0 L35.5065026,31.5630996 L35.5065026,31.5630996 Z M23.3993673,7.83232474 C16.6473111,7.83232474 12.3399648,12.8590406 12.3399648,19.7561624 L12.3399648,19.9899631 C11.1758172,19.2885609 9.77884006,18.8209594 8.26544815,18.2364576 C4.6565905,17.0674539 3.49244288,16.1322509 3.49244288,14.1449446 C3.49244288,11.4562362 5.9371529,10.2872325 8.26544815,10.2872325 C9.89525484,10.2872325 11.5250615,10.8717343 12.3399648,12.3914391 L14.5518453,10.5210332 C12.9220386,8.53372692 10.8265729,7.83232474 8.26544815,7.83232474 C4.30734622,7.83232474 0.582073812,10.0534317 0.582073812,14.3787454 C0.582073812,18.1195572 3.02678383,19.5223616 6.16998244,20.5744649 C10.1280844,21.860369 11.9907206,22.4448709 11.9907206,25.1335794 C11.9907206,27.7053875 9.42959578,29.1081919 7.10130053,29.1081919 C5.12224956,29.1081919 3.25961336,28.2898893 2.32829526,26.5363838 L0,28.4067897 C1.62980668,30.744797 4.423761,31.5630996 6.98488578,31.5630996 C10.2444991,31.5630996 13.3876977,30.1602952 14.4354306,27.3546864 C16.4144816,29.9264945 19.4412654,31.5630996 23.3993673,31.5630996 C30.3842531,31.5630996 34.4587698,26.5363838 34.4587698,19.639262 C34.4587698,12.8590406 30.1514235,7.83232474 23.3993673,7.83232474 L23.3993673,7.83232474 Z M23.3993673,28.4067897 C18.160703,28.4067897 15.4831634,24.7828782 15.4831634,19.7561624 C15.4831634,14.7294465 18.3935325,11.1055351 23.3993673,11.1055351 C28.4052021,11.1055351 31.3155712,14.7294465 31.3155712,19.7561624 C31.3155712,24.7828782 28.6380316,28.4067897 23.3993673,28.4067897 L23.3993673,28.4067897 Z" id="Shape"></path>
                    <path d="M144,18.9007171 C144,12.7434263 140.041696,7.74788846 133.172873,7.63171315 C130.262355,7.63171315 127.701099,8.67729085 125.721947,10.4199203 L125.721947,8.56111554 L119.318807,8.56111554 L119.318807,2.52 L116.175447,2.52 L116.175447,8.56111554 L111.169356,8.56111554 L111.169356,10.4199203 C109.306625,8.67729085 106.745369,7.63171315 103.602009,7.63171315 C100.575071,7.63171315 98.0138149,8.67729085 96.1510831,10.4199203 L96.1510831,8.56111554 L89.7479435,8.56111554 L89.7479435,2.52 L86.3717425,2.52 L86.3717425,8.56111554 L81.9477551,8.56111554 C80.7835478,7.98023905 79.5029198,7.86406374 78.1058714,7.86406374 C74.1475667,7.86406374 70.4221034,10.0713944 70.4221034,14.3698805 C70.4221034,18.08749 72.8669387,19.4815936 76.0102981,20.5271713 C79.9686029,21.8050996 81.8313343,22.3859761 81.8313343,25.058008 C81.8313343,27.6138645 79.2700783,29.0079681 76.9416642,29.0079681 C74.9625116,29.0079681 73.0997802,28.194741 72.1684145,26.4521115 L69.84,28.3109163 C71.3534695,30.518247 74.1475667,31.4476494 76.7088227,31.4476494 C80.7835478,31.4476494 84.6254318,29.356494 84.6254318,24.9418327 C84.6254318,20.5271713 81.3656516,19.3654183 77.8730299,18.3198406 C74.2639874,17.1580877 73.0997802,16.2286853 73.0997802,14.2537052 C73.0997802,11.5816733 75.5446154,10.5360956 77.8730299,10.5360956 C79.5029198,10.5360956 81.1328101,11.1169721 81.9477551,12.627251 L82.9955416,11.6978486 L86.3717425,11.6978486 L86.3717425,25.4065339 C86.3717425,29.8211952 89.0494193,31.68 93.2405652,31.68 C95.1032966,31.68 96.7331869,31.3314741 98.3630768,30.6344223 C99.7601256,31.3314741 101.506436,31.68 103.369168,31.68 C106.396107,31.68 109.073784,30.4020717 111.169356,27.381514 L111.285777,27.381514 L111.285777,31.3314741 L114.429137,31.3314741 L114.429137,19.4815936 C114.429137,16.2286853 113.497771,13.4404781 111.867881,11.3493227 L116.059027,11.3493227 L116.059027,25.058008 C116.059027,29.4726693 118.736703,31.3314741 122.927849,31.3314741 C124.790581,31.3314741 126.536892,30.9829482 128.166782,30.1697211 C129.680251,30.8667729 131.426562,31.3314741 133.405714,31.3314741 C137.131177,31.3314741 140.390958,29.9373705 143.068634,26.5682868 L140.623799,24.5933068 C139.343171,26.5682868 136.781915,28.4270916 133.405714,28.4270916 C128.981727,28.4270916 125.489105,24.8256574 125.139843,20.410996 L143.883579,20.410996 L144,18.9007171 L144,18.9007171 L144,18.9007171 Z M90.5628884,27.381514 C89.8643642,26.6844622 89.515102,25.6388845 89.515102,24.2447809 L89.515102,11.3493227 L95.1032966,11.3493227 C93.356986,13.4404781 92.4256202,16.2286853 92.4256202,19.4815936 C92.4256202,22.9668526 93.4734067,25.9874104 95.5689797,28.194741 C94.8704551,28.4270916 94.1719309,28.4270916 93.356986,28.4270916 C92.3091995,28.4270916 91.261413,28.0785657 90.5628884,27.381514 L90.5628884,27.381514 Z M103.485589,28.194741 C98.2466561,28.194741 95.5689797,24.5933068 95.5689797,19.5977689 C95.5689797,14.6022311 98.4794976,11.0007968 103.485589,11.0007968 C108.724521,11.0007968 111.402198,14.6022311 111.402198,19.5977689 C111.402198,24.5933068 107.676735,28.194741 103.485589,28.194741 L103.485589,28.194741 Z M125.372685,28.194741 C124.67416,28.4270916 123.859215,28.5432669 123.04427,28.5432669 C121.996484,28.5432669 121.065118,28.194741 120.366593,27.381514 C119.668069,26.6844622 119.318807,25.6388845 119.318807,24.2447809 L119.318807,11.3493227 L124.907001,11.3493227 C123.04427,13.4404781 121.996484,16.2286853 121.996484,19.4815936 C121.880063,22.9668526 123.160691,25.9874104 125.372685,28.194741 L125.372685,28.194741 Z M125.256264,17.8551395 C125.256264,14.1375299 128.981727,10.6522709 133.172873,10.6522709 C137.713281,10.6522709 140.507378,13.5566534 140.507378,17.8551395 L125.256264,17.8551395 L125.256264,17.8551395 Z" id="Shape"></path>
                    <path d="M223.511351,7.92 C220.125405,7.92 217.44,9.08934307 215.571892,10.960292 L215.571892,7.92 L212.419459,7.92 L212.419459,21.0166423 C212.419459,26.0448175 210.551351,28.8512409 205.764324,28.8512409 C200.977297,28.8512409 199.109189,26.0448175 199.109189,21.0166423 L199.109189,7.92 L195.956757,7.92 L195.956757,14.3513869 C194.205405,10.4925547 190.702703,7.92 185.915676,7.92 C183.463784,7.92 181.245405,8.62160584 179.494054,9.90788321 L179.844324,8.27080294 C179.143784,8.0369343 178.443243,8.0369343 177.509189,8.0369343 C174.59027,8.0369343 170.620541,8.85547444 168.518919,12.7143066 C166.650811,9.79094891 163.498378,8.0369343 159.411892,8.0369343 C152.64,8.0369343 148.32,13.0651095 148.32,19.9642336 C148.32,26.7464233 152.406486,31.8915328 159.411892,31.8915328 C162.447567,31.8915328 165.132973,30.6052555 167.234595,27.5649635 L167.351351,27.5649635 L167.351351,27.7988321 L167.351351,27.7988321 C167.351351,33.5286131 163.381622,37.0366423 158.828108,37.0366423 C155.442162,37.0366423 152.873514,35.1656934 151.589189,33.1778102 L149.137297,35.1656934 C151.822703,38.5567884 155.091892,39.96 158.828108,39.96 C165.24973,39.96 170.387027,35.7503649 170.503784,27.9157664 L170.503784,27.9157664 L170.503784,18.5610219 C170.503784,14.9360584 172.021622,11.3110949 177.392433,11.3110949 L178.092973,11.3110949 C176.108108,13.4159124 174.940541,16.4562044 174.940541,19.9642336 C174.940541,26.7464233 179.027027,31.8915328 186.032433,31.8915328 C191.16973,31.8915328 194.672433,29.2020438 196.19027,25.2262774 C197.007567,29.5528467 200.16,31.8915328 205.881081,31.8915328 C208.683243,31.8915328 210.901622,31.3068613 212.536216,30.1375183 L212.536216,39.8430655 L215.688649,39.8430655 L215.688649,27.3310949 L215.805405,27.3310949 C217.907027,30.3713869 220.592433,31.6576642 223.628108,31.6576642 C230.633514,31.6576642 234.72,26.629489 234.72,19.7303649 C234.603243,12.9481752 230.283243,7.92 223.511351,7.92 L223.511351,7.92 Z M159.295135,28.500438 C154.041081,28.500438 151.355676,24.8754744 151.355676,19.8472993 C151.355676,14.8191241 154.274595,11.1941606 159.295135,11.1941606 C164.549189,11.1941606 167.234595,14.8191241 167.234595,19.8472993 C167.234595,24.8754744 163.615135,28.500438 159.295135,28.500438 L159.295135,28.500438 Z M185.915676,28.500438 C180.661622,28.500438 177.976216,24.8754744 177.976216,19.8472993 C177.976216,14.8191241 180.895135,11.1941606 185.915676,11.1941606 C190.936216,11.1941606 193.855135,14.8191241 193.855135,19.8472993 C193.855135,24.8754744 191.16973,28.500438 185.915676,28.500438 L185.915676,28.500438 Z M223.511351,28.500438 C219.191351,28.500438 215.571892,24.8754744 215.571892,19.8472993 C215.571892,14.8191241 218.257297,11.1941606 223.511351,11.1941606 C228.531892,11.1941606 231.450811,14.8191241 231.450811,19.8472993 C231.450811,24.8754744 228.765405,28.500438 223.511351,28.500438 L223.511351,28.500438 Z" id="Shape"></path>
                </g>
            </g>
        </g>
    </g>
</svg>
